X: 34744
T: Road To Lisdoonvarna, The
R: reel
M: 4/4
K: Dmixolydian
DAAD ABcA|GE E2 cEGA|DAAD ABcA|BcAG FDDA|
DAAD ABcA|GEcE dEcE|DAAD ABcA|BcAG FD D2||
(3Bcd ed ^cA A2|BGGB ^cA A2|(3Bcd ed ^cAA^c|BcAG FD D2|
(3Bcd ed ^cA A2|BGGB ^cA A2|defd ^cAA^c|BcAG FD D2||

